X:168
T:Cec McEachern's Breakdown
C:Cec McEachern, 1950
B:Don Messer's Favorite Melodies
S:Colin Hume's website,  colinhume.com  - chords can also be printed below the stave.
Q:1/2=112
M:2/2
R:Reel
K:D
f3/g/ | "D"afbf afdB | AGFG Adfd | "Em"efgf edcB | "A7"Aa^gb a2fg |
"D"afbf afdB | AGFG Adfd | "Em"efge "A7"cABc | "D"d2f2 d2 :|
|: F3/E/ | "D"DFAB AFBF | ABFA defd | "Em"efgf edcd | "A7"edcB AGFE |
"D"DFAB AFBF | ABFA defd | "Em"efge "A7"cABc | "D"d2f2 d2 :|

